svg/Tango/emblems/emblem-important.svg

<?xml version="1.0" encoding="UTF-8" standalone="no"?>
<!-- Created with Inkscape (http://www.inkscape.org/) -->
<svg
   xmlns:dc="http://purl.org/dc/elements/1.1/"
   xmlns:cc="http://creativecommons.org/ns#"
   xmlns:rdf="http://www.w3.org/1999/02/22-rdf-syntax-ns#"
   xmlns:svg="http://www.w3.org/2000/svg"
   xmlns="http://www.w3.org/2000/svg"
   xmlns:xlink="http://www.w3.org/1999/xlink"
   xmlns:sodipodi="http://sodipodi.sourceforge.net/DTD/sodipodi-0.dtd"
   xmlns:inkscape="http://www.inkscape.org/namespaces/inkscape"
   width="48px"
   height="48px"
   id="svg1800"
   sodipodi:version="0.32"
   inkscape:version="0.46"
   sodipodi:docbase="/home/tigert/cvs/freedesktop.org/tango-icon-theme/scalable/emblems"
   sodipodi:docname="emblem-important.svg"
   inkscape:output_extension="org.inkscape.output.svg.inkscape">
  <defs
     id="defs3">
    <inkscape:perspective
       sodipodi:type="inkscape:persp3d"
       inkscape:vp_x="0 : 24 : 1"
       inkscape:vp_y="0 : 1000 : 0"
       inkscape:vp_z="48 : 24 : 1"
       inkscape:persp3d-origin="24 : 16 : 1"
       id="perspective17" />
    <linearGradient
       inkscape:collect="always"
       id="linearGradient3101">
      <stop
         style="stop-color:#000000;stop-opacity:1;"
         offset="0"
         id="stop3103" />
      <stop
         style="stop-color:#000000;stop-opacity:0;"
         offset="1"
         id="stop3105" />
    </linearGradient>
    <radialGradient
       inkscape:collect="always"
       xlink:href="#linearGradient3101"
       id="radialGradient3107"
       cx="17.3125"
       cy="25.53125"
       fx="17.3125"
       fy="25.53125"
       r="9.6875"
       gradientTransform="matrix(1.000000,0.000000,0.000000,0.351613,1.292803e-15,16.55413)"
       gradientUnits="userSpaceOnUse" />
  </defs>
  <sodipodi:namedview
     fill="#edd400"
     id="base"
     pagecolor="#ffffff"
     bordercolor="#666666"
     borderopacity="0.20392157"
     inkscape:pageopacity="0.0"
     inkscape:pageshadow="2"
     inkscape:zoom="1"
     inkscape:cx="66.140367"
     inkscape:cy="14.79073"
     inkscape:current-layer="layer1"
     showgrid="false"
     inkscape:grid-bbox="true"
     inkscape:document-units="px"
     inkscape:showpageshadow="false"
     inkscape:window-width="872"
     inkscape:window-height="818"
     inkscape:window-x="370"
     inkscape:window-y="30" />
  <metadata
     id="metadata4">
    <rdf:RDF>
      <cc:Work
         rdf:about="">
        <dc:format>image/svg+xml</dc:format>
        <dc:type
           rdf:resource="http://purl.org/dc/dcmitype/StillImage" />
        <cc:license
           rdf:resource="http://creativecommons.org/licenses/publicdomain/" />
        <dc:title>Emblem Important</dc:title>
        <dc:creator>
          <cc:Agent>
            <dc:title>Jakub Steiner</dc:title>
          </cc:Agent>
        </dc:creator>
        <dc:subject>
          <rdf:Bag>
            <rdf:li>emblem</rdf:li>
            <rdf:li>photos</rdf:li>
            <rdf:li>pictures</rdf:li>
            <rdf:li>raw</rdf:li>
            <rdf:li>jpeg</rdf:li>
          </rdf:Bag>
        </dc:subject>
      </cc:Work>
      <cc:License
         rdf:about="http://creativecommons.org/licenses/publicdomain/">
        <cc:permits
           rdf:resource="http://creativecommons.org/ns#Reproduction" />
        <cc:permits
           rdf:resource="http://creativecommons.org/ns#Distribution" />
        <cc:permits
           rdf:resource="http://creativecommons.org/ns#DerivativeWorks" />
      </cc:License>
    </rdf:RDF>
  </metadata>
  <g
     id="layer1"
     inkscape:label="Layer 1"
     inkscape:groupmode="layer">
    <path
       sodipodi:type="arc"
       style="opacity:0.40909091;color:#000000;fill:url(#radialGradient3107);fill-opacity:1.0000000;fill-rule:nonzero;stroke:none;stroke-width:1.1053395;stroke-linecap:butt;stroke-linejoin:miter;marker:none;marker-start:none;marker-mid:none;marker-end:none;stroke-miterlimit:4.0000000;stroke-dasharray:none;stroke-dashoffset:0.0000000;stroke-opacity:1.0000000;visibility:visible;display:inline;overflow:visible"
       id="path3099"
       sodipodi:cx="17.312500"
       sodipodi:cy="25.531250"
       sodipodi:rx="9.6875000"
       sodipodi:ry="3.4062500"
       d="M 27.000000 25.531250 A 9.6875000 3.4062500 0 1 1  7.6250000,25.531250 A 9.6875000 3.4062500 0 1 1  27.000000 25.531250 z"
       transform="matrix(2.182912,0.000000,0.000000,2.182912,-13.50372,-14.35012)" />
    <path
       sodipodi:type="arc"
       style="opacity:1.0000000;fill:#f57900;fill-opacity:1.0000000;fill-rule:nonzero;stroke:#914900;stroke-width:0.98214942;stroke-linecap:round;stroke-linejoin:round;stroke-miterlimit:4.0000000;stroke-dasharray:none;stroke-dashoffset:0.0000000;stroke-opacity:1.0000000"
       id="path1650"
       sodipodi:cx="24.130018"
       sodipodi:cy="23.428040"
       sodipodi:rx="22.008699"
       sodipodi:ry="21.213203"
       d="M 46.138718 23.428040 A 22.008699 21.213203 0 1 1  2.1213188,23.428040 A 22.008699 21.213203 0 1 1  46.138718 23.428040 z"
       transform="matrix(0.944630,0.000000,0.000000,0.980053,1.504174,-1.556912)" />
    <path
       sodipodi:type="arc"
       style="opacity:1.0000000;fill:none;fill-opacity:1.0000000;fill-rule:nonzero;stroke:#fcaf3e;stroke-width:0.98214942;stroke-linecap:round;stroke-linejoin:round;stroke-miterlimit:4.0000000;stroke-dasharray:none;stroke-dashoffset:0.0000000;stroke-opacity:1.0000000"
       id="path3392"
       sodipodi:cx="24.130018"
       sodipodi:cy="23.428040"
       sodipodi:rx="22.008699"
       sodipodi:ry="21.213203"
       d="M 46.138718 23.428040 A 22.008699 21.213203 0 1 1  2.1213188,23.428040 A 22.008699 21.213203 0 1 1  46.138718 23.428040 z"
       transform="matrix(0.914086,0.000000,0.000000,0.948364,2.380576,-0.905815)" />
    <path
       style="fill:#ffffff;fill-opacity:1;fill-rule:nonzero;stroke:none;stroke-width:4.1224999;stroke-linecap:round;stroke-linejoin:round;stroke-miterlimit:4.0000000;stroke-dashoffset:0.0000000;stroke-opacity:1.0000000"
       d="M 21.464926,10.373268 C 21.336952,10.373268 21.230316,10.547762 21.230316,10.757175 L 22.295085,25.197999 C 22.295085,25.407412 22.401721,25.581906 22.529695,25.581907 C 22.529695,25.581907 23.370516,25.593810 24.063684,25.581907 C 24.292022,25.577986 24.361898,25.602219 24.568998,25.581907 C 25.262166,25.593810 26.102987,25.581907 26.102987,25.581907 C 26.230961,25.581907 26.337597,25.407412 26.337597,25.197999 L 27.402366,10.757175 C 27.402366,10.547762 27.295730,10.402799 27.167755,10.402799 L 24.587044,10.402799 C 24.577532,10.400862 24.578842,10.373268 24.568998,10.373268 L 21.464926,10.373268 z "
       id="rect1872" />
    <path
       sodipodi:type="arc"
       style="opacity:1.0000000;fill:#ffffff;fill-opacity:1;fill-rule:nonzero;stroke:none;stroke-width:4.1224999;stroke-linecap:round;stroke-linejoin:round;stroke-miterlimit:4.0000000;stroke-dasharray:none;stroke-dashoffset:0.0000000;stroke-opacity:1.0000000"
       id="path2062"
       sodipodi:cx="-16.437500"
       sodipodi:cy="34.062500"
       sodipodi:rx="4.5625000"
       sodipodi:ry="3.8125000"
       d="M -11.875000 34.062500 A 4.5625000 3.8125000 0 1 1  -21.000000,34.062500 A 4.5625000 3.8125000 0 1 1  -11.875000 34.062500 z"
       transform="matrix(0.504864,0.000000,0.000000,0.604182,32.65935,9.608845)" />
    <path
       style="fill:#fffeff;fill-opacity:0.21390374;fill-rule:nonzero;stroke:none;stroke-width:1.0000000;stroke-linecap:round;stroke-linejoin:round;stroke-miterlimit:4.0000000;stroke-dashoffset:0.0000000;stroke-opacity:1.0000000"
       d="M 43.676426,20.476780 C 43.676426,31.307396 37.624257,16.170581 25.001688,20.863168 C 12.279172,25.592912 4.4350535,31.307396 4.4350535,20.476780 C 4.4350535,9.6461627 13.225120,0.85609769 24.055740,0.85609769 C 34.886359,0.85609769 43.676426,9.6461627 43.676426,20.476780 z "
       id="path3068"
       sodipodi:nodetypes="czssc" />
  </g>
</svg>

<svg xmlns="http://www.w3.org/2000/svg" viewBox="0 0 48 48"><defs><radialGradient id="0" cx="17.313" cy="25.531" r="9.688" gradientTransform="matrix(1 0 0 .35161 0 16.554)" gradientUnits="userSpaceOnUse"><stop/><stop offset="1" stop-opacity="0"/></radialGradient></defs><path d="M27 25.53125A9.6875 3.40625 0 1 1 7.625 25.53125 9.6875 3.40625 0 1 1 27 25.53125" transform="matrix(2.18291 0 0 2.18291-13.504-14.35)" opacity=".409" color="#000" fill="url(#0)"/><g stroke-linejoin="round" stroke-linecap="round" stroke-width=".982"><path d="M46.13872 23.42804A22.0087 21.2132 0 1 1 2.121319 23.42804 22.0087 21.2132 0 1 1 46.13872 23.42804z" transform="matrix(.94463 0 0 .98005 1.504-1.557)" fill="#f57900" stroke="#914900"/><path d="M46.13872 23.42804A22.0087 21.2132 0 1 1 2.121319 23.42804 22.0087 21.2132 0 1 1 46.13872 23.42804z" transform="matrix(.91409 0 0 .94836 2.381-.906)" fill="none" stroke="#fcaf3e"/></g><g fill="#fff"><path d="m21.465 10.373c-.128 0-.235.174-.235.384l1.065 14.441c0 .209.107.384.235.384 0 0 .841.012 1.534 0 .228-.004.298.02.505 0 .693.012 1.534 0 1.534 0 .128 0 .235-.174.235-.384l1.065-14.441c0-.209-.107-.354-.235-.354h-2.581c-.001-.002-.008-.03-.018-.03h-3.104"/><path d="M-11.875 34.0625A4.5625 3.8125 0 1 1 -21 34.0625 4.5625 3.8125 0 1 1 -11.875 34.0625" transform="matrix(.50486 0 0 .60418 32.659 9.609)"/></g><path d="m43.676 20.477c0 10.831-6.05-4.306-18.675.386-12.723 4.73-20.567 10.444-20.567-.386 0-10.831 8.79-19.621 19.621-19.621 10.831 0 19.621 8.79 19.621 19.621" fill="#fffeff" fill-opacity=".214"/></svg>
